X:1
%
T:Cotillion [10]
T:Cotillion No. 1 (in ms.)
M:6/8
L:1/8
S:Anonymous 1862 American music manuscript collection (p. 4)
N: https://archive.org/stream/MerryMen/MUMSS-00079#page/n0/mode/2up
Z:AK/Fiddler’s Companion
K:A
(c3  e)zE|~c3 ezE|B3 dcB|Acd e2z|
(c3 e)zE|~c3ezE|B^AB dcB|B3 A2!fermata!||
E|EGB dzE|EAc eze|feG Bze|dcE AzE|
EGB dzE|EAc ezE|^dBd c'bd|e2z A z!D.C.!||
K:F
AA|A3 A^GA|c3 c2c|d2f B2d|cdc AzF|
A3 A^GA|c3 ccc|cBA A^GA|=B3 z!D.C.!||

